X: 313
T: Mr John Scott's Reel
B: John Pringle "Collection of Reels Strathspeys & Jigs", 1801 p.31#3
Z: 2011 John Chambers <jc:trillian.mit.edu>
R: reel
M: C|
L: 1/8
K: D
V: 1
f | d2AG FEDF | Eeed cBAc | dABG FGAF | Dd (e/f/g) fdd :|
f | defg abaf | abaf beef | defg abag | fd (g/a/b) fddf |
    defg abaf | abaf beef | dfeg fagb | afeg fdd |]
V: 2 clef=bass middle=d
z | d2d2 d2d2 | e2e2 A2A2 | f2g2 d2d2 | A2A2 d2d :|
z | d2d2 d2d2 | d2d2 e2A2 | d2d2 d2d2 | A2A2 d2d2 |
    d2d2 d2d2 | d2d2 e2c2 | d2c2 d2e2 | a2A2 d2d |]

%%sep 2 1 500

